; G-Code generated by Simplify3D(TM) Version 2.1.1
; ¤C¤ë 19, 2014 at 6:11:06 ¤U¤È
; Settings Summary
;   processName,1
;   applyToModels,Case_lower,case_upper
;   printMaterial,
;   printQuality,
;   extruderName,Primary Extruder
;   extruderToolheadNumber,0
;   extruderDiameter,0.4
;   extruderAutoWidth,0
;   extruderWidth,0.38
;   extrusionMultiplier,1
;   extruderUseRetract,1
;   extruderRetractionDistance,3
;   extruderExtraRestartDistance,0
;   extruderRetractionZLift,0.2
;   extruderRetractionSpeed,5400
;   extruderUseCoasting,0
;   extruderCoastingDistance,1
;   extruderUseWipe,1
;   extruderWipeDistance,5
;   primaryExtruder,0
;   layerHeight,0.25
;   topSolidLayers,3
;   bottomSolidLayers,3
;   perimeterOutlines,3
;   printPerimetersInsideOut,1
;   startPointOption,2
;   startPointOriginX,0
;   startPointOriginY,0
;   startPointOriginZ,300
;   sequentialIslands,0
;   spiralVaseMode,0
;   firstLayerHeightRatio,1
;   firstLayerUnderspeed,0.5
;   useRaft,0
;   raftLayers,2
;   raftOffset,3
;   raftSeparationDistance,0.07
;   raftInfill,30
;   disableRaftBaseLayers,0
;   useSkirt,1
;   skirtLayers,1
;   skirtOutlines,1
;   skirtOffset,1
;   infillExtruder,0
;   externalInfillPattern,Rectilinear
;   infillPercentage,50
;   outlineOverlapPercentage,20
;   minInfillLength,0
;   infillLayerInterval,1
;   randomInfillStartPoint,1
;   infillAngles,45,-45
;   generateSupport,1
;   supportExtruder,0
;   supportInfill,30
;   supportExtraInflation,0
;   supportLayerInterval,1
;   supportHorizontalPartOffset,0.3
;   supportUpperSeparationLayers,1
;   supportLowerSeparationLayers,1
;   supportGridSpacing,2
;   maxOverhangAngle,45
;   supportAngles,0,45,-45
;   temperatureName,Primary Extruder,Heated Bed
;   temperatureNumber,0,1
;   temperatureSetpointCount,1,5
;   temperatureSetpointLayers,1,1,15,20,25,30
;   temperatureSetpointTemperatures,210,55,50,40,30,0
;   temperatureStabilizeAtStartup,1,1
;   temperatureHeatedBed,0,1
;   temperatureRelayBetweenLayers,0,0
;   temperatureRelayBetweenLoops,0,0
;   fanLayers,1,5,15
;   fanSpeeds,0,60,80
;   blipFanToFullPower,1
;   adjustSpeedForCooling,1
;   minSpeedLayerTime,15
;   minCoolingSpeedSlowdown,20
;   increaseFanForCooling,1
;   minFanLayerTime,60
;   maxCoolingFanSpeed,100
;   increaseFanForBridging,1
;   bridgingFanSpeed,100
;   use5D,1
;   relativeEdistances,0
;   allowEaxisZeroing,1
;   includeM10123,0
;   stickySupport,1
;   detectArcs,0
;   arcReplaceG2G3,0
;   arcRadialCompensation,1
;   gcodeXoffset,0
;   gcodeYoffset,0
;   gcodeZoffset,0
;   overrideMachineDefinition,0
;   machineTypeOverride,1
;   strokeXoverride,260
;   strokeYoverride,260
;   strokeZoverride,375
;   originOffsetXoverride,130
;   originOffsetYoverride,130
;   originOffsetZoverride,0
;   homeXdirOverride,0
;   homeYdirOverride,0
;   homeZdirOverride,1
;   flipXoverride,1
;   flipYoverride,-1
;   flipZoverride,1
;   startingGcode,;M302 ; Allow cold extrusion to avoid USB errors,;M220 S100 ; Set feedmultiply back to normal (100%),;M104 S150 ,;M106 S50 ; 50% fan to prevent hotend jam,;M190 S<BED>,;M109 S<TEMP>,G28 ; Home to top 3 endstops,G4 P1000,G29,M107 ; Turn fan off for the first layer.,
;   layerChangeGcode,
;   toolChangeGcode,
;   endingGcode,;End GCode,M31,M104 S0 ;extruder heater off,M140 S0 ;heated bed heater off (if you have it),G91 ;relative positioning,;G1 E-1 F6000 ;retract the filament a bit before lifting the nozzle, to release some of the pressure,;G1 Z+0.5 X-20 Y-20 F{travel_speed} ;move Z up a bit and retract filament even more,G28 X0 Y0 ;move X/Y to min endstops, so the head is out of the way,M190 S0 ; ,M84 ;steppers off,G90 ;absolute positioning
;   createX3G,0
;   celebration,0
;   celebrationSong,Random Song
;   postProcessing,
;   defaultSpeed,3000
;   outlineUnderspeed,0.5
;   supportUnderspeed,0.8
;   rapidXYspeed,9000
;   rapidZspeed,1200
;   minBridgingArea,50
;   bridgingExtrusionMultiplier,0.95
;   bridgingSpeedMultiplier,0.8
;   filamentDiameter,1.75
;   filamentPricePerKg,46
;   useMinPrintHeight,0
;   minPrintHeight,0
;   useMaxPrintHeight,0
;   maxPrintHeight,0
;   overlapRemoval,0
;   overlapRemovalPercentage,0.3
;   useDiaphragm,0
;   diaphragmLayerInterval,20
;   robustSlicing,1
;   mergeAllIntoSolid,0
;   onlyRetractWhenCrossingOutline,1
;   retractBetweenLayers,1
;   useRetractionMinTravel,0
;   retractionMinTravel,3
;   useRetractionOozeRate,0
;   retractionOozeRate,100
;   onlyWipeOutlines,1
G90 ; use absolute coordinates
M82 ; absolute extrusion distances
G21 ; set units to millimeters
M106 S0
M140 S55
M190 S55
M104 S210 T0
M109 S210 T0
;M302 ; Allow cold extrusion to avoid USB errors
;M220 S100 ; Set feedmultiply back to normal (100%)
;M104 S150 
;M106 S50 ; 50% fan to prevent hotend jam
;M190 S<BED>
;M109 S<TEMP>
G28 ; Home to top 3 endstops
G4 P1000
G29
M107 ; Turn fan off for the first layer.

G92 E0
G1 E-3 F5400
G0 Z0.45 F1200
; layer 1, Z = 0.25
T0
; tool H0.25 W0.38
G0 X28.037 Y7.31 F9000
G0 Z0.25 F1200
G1 E0 F1620
G92 E0
G1 X28.09 Y7.313 E0.0021 F1500
G1 X28.573 Y7.356 E0.0212
G1 X29.171 Y7.527 E0.0458
G1 X29.687 Y7.789 E0.0686
G1 X30.04 Y8.045 E0.0859
G1 X30.278 Y8.263 E0.0986
G1 X30.622 Y8.675 E0.1198
G1 X30.931 Y9.225 E0.1447
G1 X31.122 Y9.829 E0.1698
G1 X31.177 Y10.202 E0.1847
G1 X31.19 Y10.472 E0.1953
G1 X31.19 Y55.56 E1.9762
G1 X31.132 Y56.136 E1.999
G1 X30.946 Y56.733 E2.0237
G1 X30.76 Y57.105 E2.0401
G1 X30.521 Y57.458 E2.057
G1 X30.266 Y57.748 E2.0722
G1 X30.039 Y57.957 E2.0844
G1 X29.595 Y58.268 E2.1058
G1 X29.055 Y58.514 E2.1293
G1 X28.551 Y58.646 E2.1498
G1 X28.052 Y58.69 E2.1696
G1 X-28.06 Y58.69 E4.3859
G1 X-28.636 Y58.632 E4.4087
G1 X-29.233 Y58.446 E4.4334
G1 X-29.605 Y58.26 E4.4498
G1 X-29.958 Y58.021 E4.4667
G1 X-30.248 Y57.766 E4.4819
G1 X-30.457 Y57.539 E4.4941
G1 X-30.769 Y57.095 E4.5155
G1 X-31.014 Y56.555 E4.539
G1 X-31.146 Y56.051 E4.5595
G1 X-31.19 Y55.552 E4.5793
G1 X-31.19 Y10.474 E6.3597
G1 X-31.178 Y10.21 E6.3702
G1 X-31.123 Y9.843 E6.3848
G1 X-31.011 Y9.441 E6.4013
G1 X-30.88 Y9.122 E6.4149
G1 X-30.585 Y8.625 E6.4377
G1 X-30.283 Y8.27 E6.4562
G1 X-30.033 Y8.038 E6.4696
G1 X-29.596 Y7.733 E6.4907
G1 X-29.092 Y7.498 E6.5127
G1 X-28.556 Y7.354 E6.5346
G1 X-28.052 Y7.31 E6.5546
G1 X28.037 Y7.31 E8.7699
G0 X28.052 Y-7.31 F9000
G92 E0
G1 X-28.052 Y-7.31 E2.2159 F1500
G1 X-28.538 Y-7.353 E2.2352
G1 X-28.911 Y-7.441 E2.2503
G1 X-29.284 Y-7.578 E2.266
G1 X-29.618 Y-7.748 E2.2808
G1 X-30.004 Y-8.013 E2.2993
G1 X-30.445 Y-8.443 E2.3236
G1 X-30.77 Y-8.908 E2.3461
G1 X-31.003 Y-9.411 E2.368
G1 X-31.146 Y-9.945 E2.3898
G1 X-31.19 Y-10.448 E2.4097
G1 X-31.19 Y-55.539 E4.1907
G1 X-31.166 Y-55.898 E4.2049
G1 X-31.102 Y-56.252 E4.2191
G1 X-31.001 Y-56.587 E4.2329
G1 X-30.88 Y-56.875 E4.2452
G1 X-30.694 Y-57.212 E4.2604
G1 X-30.479 Y-57.512 E4.275
G1 X-30.057 Y-57.945 E4.2989
G1 X-29.592 Y-58.27 E4.3213
G1 X-29.089 Y-58.503 E4.3432
G1 X-28.555 Y-58.646 E4.365
G1 X-28.052 Y-58.69 E4.385
G1 X28.054 Y-58.69 E6.6009
G1 X28.54 Y-58.646 E6.6202
G1 X28.845 Y-58.577 E6.6326
G1 X29.327 Y-58.403 E6.6528
G1 X29.62 Y-58.25 E6.6659
G1 X29.971 Y-58.01 E6.6827
G1 X30.216 Y-57.797 E6.6955
G1 X30.461 Y-57.534 E6.7097
G1 X30.77 Y-57.092 E6.731
G1 X31.003 Y-56.589 E6.7529
G1 X31.146 Y-56.055 E6.7747
G1 X31.19 Y-55.552 E6.7946
G1 X31.19 Y-10.448 E8.5761
G1 X31.147 Y-9.962 E8.5954
G1 X31.059 Y-9.589 E8.6105
G1 X30.922 Y-9.216 E8.6262
G1 X30.752 Y-8.882 E8.641
G1 X30.487 Y-8.496 E8.6595
G1 X30.057 Y-8.055 E8.6838
G1 X29.592 Y-7.73 E8.7062
G1 X29.089 Y-7.497 E8.7281
G1 X28.555 Y-7.354 E8.75
G1 X28.052 Y-7.31 E8.7699
G92 E0
G1 E-3 F5400
G0 Z0.45 F1200
G0 X28.568 Y-9.62 F9000
G0 Z0.25 F1200
G1 E0 F5400
G92 E0
G1 X-28.567 Y-9.62 E2.2566 F1250
G1 X-28.574 Y-9.623 E2.257
G1 X-28.649 Y-9.677 E2.2606
G1 X-28.761 Y-9.778 E2.2665
G1 X-28.817 Y-9.843 E2.2699
G1 X-28.88 Y-9.932 E2.2742
G1 X-28.88 Y-56.067 E4.0964
G1 X-28.877 Y-56.074 E4.0967
G1 X-28.812 Y-56.164 E4.1011
G1 X-28.726 Y-56.257 E4.1061
G1 X-28.657 Y-56.317 E4.1097
G1 X-28.568 Y-56.38 E4.114
G1 X28.567 Y-56.379 E6.3707
G1 X28.658 Y-56.316 E6.375
G1 X28.722 Y-56.26 E6.3784
G1 X28.822 Y-56.15 E6.3843
G1 X28.88 Y-56.068 E6.3882
G1 X28.88 Y-9.933 E8.2104
G1 X28.877 Y-9.926 E8.2107
G1 X28.823 Y-9.851 E8.2143
G1 X28.722 Y-9.739 E8.2203
G1 X28.657 Y-9.683 E8.2237
G1 X28.568 Y-9.62 E8.228
G0 X20.888 Y-24.661 F9000
G92 E0
G1 X21.6 Y-25.032 E0.0317 F1250
G1 X22.277 Y-25.463 E0.0634
G1 X22.914 Y-25.952 E0.0951
G1 X23.506 Y-26.494 E0.1268
G1 X24.048 Y-27.086 E0.1585
G1 X24.537 Y-27.723 E0.1902
G1 X24.968 Y-28.4 E0.2219
G1 X25.339 Y-29.112 E0.2536
G1 X25.646 Y-29.853 E0.2853
G1 X25.887 Y-30.619 E0.317
G1 X26.061 Y-31.402 E0.3487
G1 X26.166 Y-32.198 E0.3804
G1 X26.201 Y-33 E0.4121
G1 X26.166 Y-33.802 E0.4438
G1 X26.061 Y-34.598 E0.4755
G1 X25.887 Y-35.381 E0.5072
G1 X25.646 Y-36.147 E0.5389
G1 X25.339 Y-36.888 E0.5707
G1 X24.968 Y-37.6 E0.6024
G1 X24.537 Y-38.277 E0.6341
G1 X24.048 Y-38.914 E0.6658
G1 X23.506 Y-39.506 E0.6975
G1 X22.914 Y-40.048 E0.7292
G1 X22.277 Y-40.537 E0.7609
G1 X21.6 Y-40.968 E0.7926
G1 X20.888 Y-41.339 E0.8243
G1 X20.147 Y-41.646 E0.856
G1 X19.381 Y-41.887 E0.8877
G1 X18.598 Y-42.061 E0.9194
G1 X17.802 Y-42.166 E0.9511
G1 X17 Y-42.201 E0.9828
G1 X16.198 Y-42.166 E1.0145
G1 X15.402 Y-42.061 E1.0462
G1 X14.619 Y-41.887 E1.0779
G1 X13.853 Y-41.646 E1.1096
G1 X13.112 Y-41.339 E1.1413
G1 X12.4 Y-40.968 E1.173
G1 X11.723 Y-40.537 E1.2047
G1 X11.086 Y-40.048 E1.2364
G1 X10.494 Y-39.506 E1.2681
G1 X9.952 Y-38.914 E1.2998
G1 X9.463 Y-38.277 E1.3315
G1 X9.032 Y-37.6 E1.3632
G1 X8.661 Y-36.888 E1.3949
G1 X8.354 Y-36.147 E1.4266
G1 X8.113 Y-35.381 E1.4583
G1 X7.939 Y-34.598 E1.49
G1 X7.834 Y-33.802 E1.5217
G1 X7.799 Y-33 E1.5534
G1 X7.834 Y-32.198 E1.5851
G1 X7.939 Y-31.402 E1.6168
G1 X8.113 Y-30.619 E1.6485
G1 X8.354 Y-29.853 E1.6802
G1 X8.661 Y-29.112 E1.712
G1 X9.032 Y-28.4 E1.7437
G1 X9.463 Y-27.723 E1.7754
G1 X9.952 Y-27.086 E1.8071
G1 X10.494 Y-26.494 E1.8388
G1 X11.086 Y-25.952 E1.8705
G1 X11.723 Y-25.463 E1.9022
G1 X12.4 Y-25.032 E1.9339
G1 X13.112 Y-24.661 E1.9656
G1 X13.853 Y-24.354 E1.9973
G1 X14.619 Y-24.113 E2.029
G1 X15.402 Y-23.939 E2.0607
G1 X16.198 Y-23.834 E2.0924
G1 X17 Y-23.799 E2.1241
G1 X17.802 Y-23.834 E2.1558
G1 X18.598 Y-23.939 E2.1875
G1 X19.381 Y-24.113 E2.2192
G1 X20.147 Y-24.354 E2.2509
G1 X20.888 Y-24.661 E2.2826
G0 X0.92 Y-19.58 F9000
G92 E0
G1 X1.095 Y-19.99 E0.0176 F1250
G1 X1.15 Y-20.374 E0.0329
G1 X1.15 Y-45.61 E1.0297
G1 X1.103 Y-45.977 E1.0443
G1 X0.938 Y-46.388 E1.0618
G1 X0.671 Y-46.744 E1.0794
G1 X0.32 Y-47.02 E1.097
G1 X-0.09 Y-47.195 E1.1146
G1 X-0.474 Y-47.25 E1.1299
G1 X-14.79 Y-47.25 E1.6953
G1 X-15.033 Y-47.229 E1.705
G1 X-15.309 Y-47.158 E1.7162
G1 X-15.495 Y-47.081 E1.7242
G1 X-15.816 Y-46.881 E1.7391
G1 X-16.043 Y-46.659 E1.7516
G1 X-16.228 Y-46.401 E1.7642
G1 X-16.395 Y-46.01 E1.781
G1 X-16.45 Y-45.626 E1.7963
G1 X-16.45 Y-20.39 E2.793
G1 X-16.403 Y-20.023 E2.8077
G1 X-16.238 Y-19.612 E2.8251
G1 X-15.971 Y-19.256 E2.8427
G1 X-15.62 Y-18.98 E2.8603
G1 X-15.21 Y-18.805 E2.878
G1 X-14.826 Y-18.75 E2.8933
G1 X-0.49 Y-18.75 E3.4595
G1 X-0.123 Y-18.797 E3.4741
G1 X0.288 Y-18.962 E3.4916
G1 X0.644 Y-19.229 E3.5092
G1 X0.92 Y-19.58 E3.5268
G92 E0
G1 E-3 F5400
G0 Z0.45 F1200
G0 X-19.746 Y-27.027 F9000
G0 Z0.25 F1200
G1 E0 F5400
G92 E0
G1 X-19.746 Y-29.513 E0.0982 F1250
G1 X-21.307 Y-29.513 E0.1599
G1 X-21.307 Y-31.372 E0.2333
G1 X-21.695 Y-31.372 E0.2486
G1 X-21.695 Y-34.418 E0.3689
G1 X-20.688 Y-34.796 E0.4114
G1 X-19.744 Y-35.012 E0.4496
G1 X-19.76 Y-36.054 E0.4908
G1 X-19.803 Y-36.458 E0.5068
G1 X-19.746 Y-36.458 E0.5091
G1 X-19.746 Y-38.892 E0.6052
G1 X-19.765 Y-38.892 E0.606
G1 X-19.765 Y-40.656 E0.6756
G1 X-23.011 Y-40.656 E0.8038
G1 X-23.238 Y-40.764 E0.8138
G1 X-23.569 Y-40.843 E0.8272
G1 X-23.935 Y-40.892 E0.8418
G1 X-24.119 Y-41.403 E0.8632
G1 X-24.54 Y-40.972 E0.887
G1 X-24.648 Y-40.986 E0.8913
G1 X-24.702 Y-40.806 E0.8987
G1 X-26.011 Y-39.466 E0.9727
G1 X-25.805 Y-38.93 E0.9954
G1 X-26.059 Y-38.93 E1.0055
G1 X-26.059 Y-35.185 E1.1534
G1 X-25.175 Y-35.185 E1.1883
G1 X-25.175 Y-34.599 E1.2115
G1 X-24.205 Y-34.599 E1.2498
G1 X-24.205 Y-31.126 E1.3869
G1 X-24.609 Y-31.324 E1.4047
G1 X-24.666 Y-31.098 E1.4139
G1 X-25.771 Y-31.098 E1.4575
G1 X-25.771 Y-25.433 E1.6813
G1 X-24.586 Y-25.433 E1.7281
G1 X-24.575 Y-25.393 E1.7297
G1 X-24.477 Y-25.433 E1.7339
G1 X-23.779 Y-25.433 E1.7614
G1 X-23.779 Y-25.187 E1.7711
G1 X-21.307 Y-25.187 E1.8688
G1 X-21.307 Y-27.027 E1.9415
G1 X-19.746 Y-27.027 E2.0031
G92 E0
G1 E-3 F5400
G0 Z0.45 F1200
G0 X28.665 Y-9.24 F9000
G0 Z0.25 F1200
G1 E0 F5400
G92 E0
G1 X-28.662 Y-9.24 E2.2642 F1000
G1 X-28.775 Y-9.3 E2.2693
G1 X-28.888 Y-9.381 E2.2747
G1 X-29.032 Y-9.512 E2.2824
G1 X-29.116 Y-9.608 E2.2875
G1 X-29.21 Y-9.74 E2.2939
G1 X-29.26 Y-9.835 E2.2981
G1 X-29.26 Y-56.162 E4.1279
G1 X-29.2 Y-56.275 E4.1329
G1 X-29.11 Y-56.401 E4.139
G1 X-29.104 Y-56.409 E4.1394
G1 X-28.991 Y-56.53 E4.146
G1 X-28.892 Y-56.616 E4.1512
G1 X-28.759 Y-56.71 E4.1576
G1 X-28.665 Y-56.76 E4.1618
G1 X28.665 Y-56.759 E6.4261
G1 X28.758 Y-56.709 E6.4303
G1 X28.892 Y-56.616 E6.4367
G1 X28.989 Y-56.532 E6.4418
G1 X29.119 Y-56.388 E6.4495
G1 X29.21 Y-56.259 E6.4557
G1 X29.26 Y-56.165 E6.4599
G1 X29.26 Y-9.838 E8.2897
G1 X29.2 Y-9.725 E8.2947
G1 X29.119 Y-9.612 E8.3002
G1 X28.988 Y-9.468 E8.3079
G1 X28.892 Y-9.384 E8.3129
G1 X28.759 Y-9.29 E8.3194
G1 X28.665 Y-9.24 E8.3236
G0 X20.728 Y-25.006 F9000
G92 E0
G1 X21.41 Y-25.361 E0.0304 F1000
G1 X22.059 Y-25.775 E0.0608
G1 X22.67 Y-26.243 E0.0912
G1 X23.237 Y-26.763 E0.1216
G1 X23.757 Y-27.33 E0.152
G1 X24.225 Y-27.941 E0.1824
G1 X24.639 Y-28.59 E0.2127
G1 X24.994 Y-29.272 E0.2431
G1 X25.289 Y-29.983 E0.2735
G1 X25.52 Y-30.717 E0.3039
G1 X25.687 Y-31.468 E0.3343
G1 X25.787 Y-32.231 E0.3647
G1 X25.821 Y-33 E0.3951
G1 X25.787 Y-33.769 E0.4255
G1 X25.687 Y-34.532 E0.4559
G1 X25.52 Y-35.283 E0.4863
G1 X25.289 Y-36.017 E0.5167
G1 X24.994 Y-36.728 E0.5471
G1 X24.639 Y-37.41 E0.5775
G1 X24.225 Y-38.059 E0.6078
G1 X23.757 Y-38.67 E0.6382
G1 X23.237 Y-39.237 E0.6686
G1 X22.67 Y-39.757 E0.699
G1 X22.059 Y-40.225 E0.7294
G1 X21.41 Y-40.639 E0.7598
G1 X20.728 Y-40.994 E0.7902
G1 X20.017 Y-41.289 E0.8206
G1 X19.283 Y-41.52 E0.851
G1 X18.532 Y-41.687 E0.8814
G1 X17.769 Y-41.787 E0.9118
G1 X17 Y-41.821 E0.9422
G1 X16.231 Y-41.787 E0.9726
G1 X15.468 Y-41.687 E1.0029
G1 X14.717 Y-41.52 E1.0333
G1 X13.983 Y-41.289 E1.0637
G1 X13.272 Y-40.994 E1.0941
G1 X12.59 Y-40.639 E1.1245
G1 X11.941 Y-40.225 E1.1549
G1 X11.33 Y-39.757 E1.1853
G1 X10.763 Y-39.237 E1.2157
G1 X10.243 Y-38.67 E1.2461
G1 X9.775 Y-38.059 E1.2765
G1 X9.361 Y-37.41 E1.3069
G1 X9.006 Y-36.728 E1.3373
G1 X8.711 Y-36.017 E1.3677
G1 X8.48 Y-35.283 E1.398
G1 X8.313 Y-34.532 E1.4284
G1 X8.213 Y-33.769 E1.4588
G1 X8.179 Y-33 E1.4892
G1 X8.213 Y-32.231 E1.5196
G1 X8.313 Y-31.468 E1.55
G1 X8.48 Y-30.717 E1.5804
G1 X8.711 Y-29.983 E1.6108
G1 X9.006 Y-29.272 E1.6412
G1 X9.361 Y-28.59 E1.6716
G1 X9.775 Y-27.941 E1.702
G1 X10.243 Y-27.33 E1.7324
G1 X10.763 Y-26.763 E1.7627
G1 X11.33 Y-26.243 E1.7931
G1 X11.941 Y-25.775 E1.8235
G1 X12.59 Y-25.361 E1.8539
G1 X13.272 Y-25.006 E1.8843
G1 X13.983 Y-24.711 E1.9147
G1 X14.717 Y-24.48 E1.9451
G1 X15.468 Y-24.313 E1.9755
G1 X16.231 Y-24.213 E2.0059
G1 X17 Y-24.179 E2.0363
G1 X17.769 Y-24.213 E2.0667
G1 X18.532 Y-24.313 E2.0971
G1 X19.283 Y-24.48 E2.1275
G1 X20.017 Y-24.711 E2.1578
G1 X20.728 Y-25.006 E2.1882
G0 X0.59 Y-19.775 F9000
G92 E0
G1 X0.726 Y-20.093 E0.0137 F1000
G1 X0.77 Y-20.401 E0.0259
G1 X0.77 Y-45.586 E1.0207
G1 X0.732 Y-45.881 E1.0324
G1 X0.604 Y-46.2 E1.046
G1 X0.397 Y-46.476 E1.0596
G1 X0.125 Y-46.69 E1.0733
G1 X-0.193 Y-46.826 E1.0869
G1 X-0.501 Y-46.87 E1.0992
G1 X-14.774 Y-46.87 E1.663
G1 X-14.968 Y-46.854 E1.6707
G1 X-15.188 Y-46.797 E1.6796
G1 X-15.321 Y-46.742 E1.6853
G1 X-15.58 Y-46.581 E1.6973
G1 X-15.753 Y-46.411 E1.7069
G1 X-15.895 Y-46.213 E1.7165
G1 X-16.026 Y-45.907 E1.7297
G1 X-16.07 Y-45.599 E1.742
G1 X-16.07 Y-20.414 E2.7367
G1 X-16.032 Y-20.119 E2.7484
G1 X-15.904 Y-19.8 E2.762
G1 X-15.697 Y-19.524 E2.7757
G1 X-15.425 Y-19.31 E2.7893
G1 X-15.107 Y-19.174 E2.803
G1 X-14.799 Y-19.13 E2.8153
